X: 1
T: Swallowtail, The
C: Trad
R: Reel
L: 1/8
M: 4/4
K: Ador
Z: ABC transcription by Verge Roller
r: 32
|: gf | "Am" eAcA eAcA | "Am" ABcd eage | "G" dGBG dGBG | "G" GABc dBgf |
"Am" eAcA eAcA | "Am" ABcd efge | "Am" afge "G" dgBG | "Am" A2 a2 A2 :|
|: (3 efg | "Am" a2 ag e2 ed | "Am" cdef "G" g2 fg | "G" dgBg dgBg | "Am" cdef "G" g2 fg |
"Am" a2 ag e2 ed | "Am" cdef "G" g2 fg | "Am" afge "G" dgBG | "Am" A2 a2 A2 :|
